static/logos/square-wordmark-color.svg

<svg width="100" height="25" viewBox="0 0 100 25" fill="none" xmlns="http://www.w3.org/2000/svg">
<g clip-path="url(#clip0_1_958)">
<path d="M20.987 0H4.36045C2.05554 0 0.1875 1.86803 0.1875 4.17294V20.7994C0.1875 23.1043 2.05554 24.9724 4.36045 24.9724H20.987C23.2919 24.9724 25.1598 23.1043 25.1598 20.7994V4.17294C25.1598 1.86803 23.2919 0 20.987 0ZM20.6204 19.1147C20.6204 19.8428 20.0303 20.4328 19.3022 20.4328H6.04518C5.31706 20.4328 4.72702 19.8428 4.72702 19.1147V5.85769C4.72702 5.12956 5.31706 4.53952 6.04518 4.53952H19.3022C20.0303 4.53952 20.6204 5.12956 20.6204 5.85769V19.1147ZM10.0248 15.8758C9.6055 15.8758 9.26905 15.5368 9.26905 15.1175V9.82475C9.26905 9.40544 9.6055 9.06398 10.0248 9.06398H15.3251C15.7419 9.06398 16.0809 9.40293 16.0809 9.82475V15.115C16.0809 15.5343 15.7419 15.8733 15.3251 15.8733H10.0248V15.8758ZM31.7809 15.5142H34.5076C34.6431 17.0583 35.6902 18.2635 37.8018 18.2635C39.6873 18.2635 40.8473 17.332 40.8473 15.9235C40.8473 14.6053 39.9385 14.0152 38.3014 13.6286L36.1873 13.1742C33.8924 12.6745 32.1649 11.1981 32.1649 8.78778C32.1649 6.12885 34.5277 4.31103 37.5959 4.31103C40.8448 4.31103 42.9363 6.01586 43.1171 8.5367H40.4807C40.1669 7.35664 39.1877 6.65361 37.5984 6.65361C35.9161 6.65361 34.7587 7.56252 34.7587 8.72251C34.7587 9.88249 35.7579 10.5855 37.4854 10.9722L39.5769 11.4266C41.8718 11.9262 43.4385 13.3123 43.4385 15.7427C43.4385 18.8335 41.121 20.6739 37.8043 20.6739C34.0757 20.6714 32.0094 18.6502 31.7809 15.5142ZM53.1929 24.9724V20.4505L53.3712 18.4669H53.1929C52.5678 19.8931 51.2546 20.6739 49.4719 20.6739C46.5971 20.6739 44.4579 18.3339 44.4579 14.7459C44.4579 11.158 46.5971 8.81792 49.4719 8.81792C51.232 8.81792 52.4798 9.64145 53.1929 10.9345H53.3712V9.03886H55.7338V24.9724H53.1929ZM53.2809 14.7434C53.2809 12.4485 51.8772 11.1103 50.1598 11.1103C48.4424 11.1103 47.0389 12.4485 47.0389 14.7434C47.0389 17.0383 48.4424 18.3765 50.1598 18.3765C51.8772 18.3765 53.2809 17.0408 53.2809 14.7434ZM57.6195 15.926V9.03886H60.1604V15.7025C60.1604 17.5077 61.0291 18.3765 62.4779 18.3765C64.2605 18.3765 65.4205 17.106 65.4205 15.1225V9.03886H67.9614V20.448H65.5988V18.0852H65.4205C64.8631 19.6018 63.6378 20.6714 61.7447 20.6714C59.023 20.6714 57.6195 18.9339 57.6195 15.926ZM69.5081 17.2617C69.5081 15.1225 71.002 13.8747 73.6534 13.719L76.7944 13.5182V12.6268C76.7944 11.5572 76.0136 10.9119 74.6326 10.9119C73.3621 10.9119 72.6039 11.5572 72.403 12.4711H69.8621C70.1307 10.1537 72.0465 8.81541 74.6301 8.81541C77.5502 8.81541 79.3328 10.0633 79.3328 12.4711V20.448H76.9702V18.3314H76.7919C76.2571 19.7349 75.1423 20.6714 73.0031 20.6714C70.9568 20.6714 69.5081 19.2905 69.5081 17.2617ZM76.7969 15.8582V15.2556L74.2334 15.4339C72.8524 15.5217 72.2272 16.0365 72.2272 17.0609C72.2272 17.9295 72.9403 18.5548 73.9421 18.5548C75.7499 18.5548 76.7969 17.3973 76.7969 15.8582ZM81.2285 20.4505V9.03886H83.5911V11.2233H83.7694C84.1034 9.72934 85.2407 9.03886 86.933 9.03886H88.093V11.3337H86.6443C84.9947 11.3337 83.7694 12.4033 83.7694 14.432V20.448H81.2285V20.4505ZM99.718 15.213H91.0482C91.1813 17.3069 92.6526 18.4895 94.2796 18.4895C95.6605 18.4895 96.5293 17.9322 97.0214 16.9956H99.5397C98.8493 19.3131 96.8205 20.6714 94.257 20.6714C90.8926 20.6714 88.5298 18.1531 88.5298 14.7434C88.5298 11.3337 90.9578 8.81541 94.2796 8.81541C97.6214 8.81541 99.8059 11.1103 99.8059 13.9625C99.8084 14.5225 99.7631 14.8111 99.718 15.213ZM97.2901 13.4528C97.2021 11.871 95.8865 10.8014 94.2821 10.8014C92.7656 10.8014 91.4977 11.7606 91.1838 13.4528H97.2901Z" fill="black"/>
</g>
<defs>
<clipPath id="clip0_1_958">
<rect width="100" height="25" fill="white"/>
</clipPath>
</defs>
</svg>

<svg xmlns="http://www.w3.org/2000/svg" width="256" height="64" fill="none" viewBox="0 0 100 25"><g clip-path="url(#a)"><path fill="#000" d="M20.987 0H4.36A4.173 4.173 0 0 0 .187 4.173v16.626a4.173 4.173 0 0 0 4.173 4.173h16.627A4.173 4.173 0 0 0 25.16 20.8V4.173A4.172 4.172 0 0 0 20.987 0Zm-.367 19.115c0 .728-.59 1.318-1.318 1.318H6.045c-.728 0-1.318-.59-1.318-1.318V5.858c0-.728.59-1.318 1.318-1.318h13.257c.728 0 1.318.59 1.318 1.318v13.257Zm-10.595-3.24a.755.755 0 0 1-.756-.758V9.825c0-.42.336-.761.756-.761h5.3c.417 0 .756.339.756.76v5.291c0 .42-.34.758-.756.758h-5.3v.003Zm21.756-.36h2.727c.135 1.543 1.182 2.748 3.294 2.748 1.885 0 3.045-.931 3.045-2.34 0-1.318-.909-1.908-2.546-2.294l-2.114-.455c-2.295-.5-4.022-1.976-4.022-4.386 0-2.66 2.363-4.477 5.43-4.477 3.25 0 5.341 1.705 5.522 4.226h-2.636c-.314-1.18-1.293-1.883-2.883-1.883-1.682 0-2.84.909-2.84 2.069s1 1.862 2.727 2.25l2.092.454c2.295.5 3.861 1.885 3.861 4.316 0 3.09-2.317 4.93-5.634 4.93-3.728-.002-5.795-2.023-6.023-5.159Zm21.412 9.457v-4.521l.178-1.984h-.178c-.625 1.426-1.938 2.207-3.721 2.207-2.875 0-5.014-2.34-5.014-5.928s2.14-5.928 5.014-5.928c1.76 0 3.008.823 3.72 2.117h.18V9.038h2.362v15.933h-2.541Zm.088-10.229c0-2.295-1.404-3.633-3.121-3.633-1.718 0-3.121 1.338-3.121 3.633s1.403 3.633 3.12 3.633c1.718 0 3.122-1.335 3.122-3.633Zm4.339 1.183V9.039h2.54v6.664c0 1.805.87 2.674 2.318 2.674 1.782 0 2.943-1.271 2.943-3.254V9.039h2.54v11.409H65.6v-2.363h-.178c-.558 1.517-1.783 2.586-3.676 2.586-2.722 0-4.125-1.737-4.125-4.745Zm11.888 1.336c0-2.14 1.494-3.387 4.145-3.543l3.141-.2v-.892c0-1.07-.78-1.715-2.161-1.715-1.27 0-2.03.645-2.23 1.56h-2.54c.268-2.318 2.183-3.657 4.767-3.657 2.92 0 4.703 1.248 4.703 3.656v7.977H76.97v-2.117h-.178c-.535 1.404-1.65 2.34-3.789 2.34-2.046 0-3.495-1.38-3.495-3.41Zm7.289-1.404v-.602l-2.564.178c-1.38.088-2.006.603-2.006 1.627 0 .869.713 1.494 1.715 1.494 1.808 0 2.855-1.158 2.855-2.697Zm4.431 4.593V9.039h2.363v2.184h.178c.334-1.494 1.472-2.184 3.164-2.184h1.16v2.295h-1.449c-1.65 0-2.875 1.07-2.875 3.098v6.016h-2.54v.003Zm18.49-5.238h-8.67c.133 2.094 1.605 3.277 3.232 3.277 1.38 0 2.25-.558 2.741-1.494h2.519c-.69 2.317-2.72 3.675-5.283 3.675-3.364 0-5.727-2.518-5.727-5.928s2.428-5.928 5.75-5.928c3.341 0 5.526 2.295 5.526 5.148.002.56-.043.848-.088 1.25Zm-2.428-1.76c-.088-1.582-1.404-2.652-3.008-2.652-1.516 0-2.784.96-3.098 2.652h6.106Z"/></g><defs><clipPath id="a"><path fill="#fff" d="M0 0h100v25H0z"/></clipPath></defs></svg>
